X:1
T:Title
%%score { 1 | 2 }
L:1/8
M:3/4
K:G
V:1 treble nm="Grand Piano"
V:2 treble 
V:1
 z2 z2[Q:1/4=100] D2 | DG G2 B2 | [GB][FA] [FA]2 [Fd]2 |[M:2/4] d3 B |[M:1/4] GB |[M:2/4] [FA]4 | %6
[M:1/4] D2 |[M:3/4] DG G2 B2 | [GB][FA] [FA]2 [Fd]2 |[M:2/4] d3 B |[M:1/4] GA |[M:2/4] [B,DG]4 | %12
[M:1/4] [DGB]2 |[M:3/4] [GB][FA] [FA]2 [Ac]2 | [Ac]B B2 d2 | d3 A B^c |[M:2/4] [Fd]4 |[M:1/4] D2 | %18
[M:3/4] DG G2 B2 | [GB][FA] [FA]2 [Fd]2 |[M:2/4] d3 B |[M:1/4] GA |[M:6/4] .[B,DG]6 z6 |] %23
V:2
 z2 z2 [G,B,]2 | [G,B,][G,B,D] [G,B,D]2 [G,DG]2 | [D,D][D,D] [D,D]2 [D,A,]2 | %3
[M:2/4][K:treble] [G,B,G]3 [G,DG] |[M:1/4] [B,D][G,DG] |[M:2/4][K:bass] [D,D]4 |[M:1/4] [G,B,]2 | %7
[M:3/4] [G,B,][G,B,D] [G,B,D]2 [G,DG]2 | [D,D][D,D] [D,D]2 [D,A,]2 | %9
[M:2/4][K:treble] [G,B,G]3 [G,DG] |[M:1/4][K:bass] [D,B,][D,CD] |[M:2/4] G,,4 |[M:1/4] G,2 | %13
[M:3/4] [D,D][D,D] [D,D]2 [D,D]2 | [G,D][G,DG] [G,DG]2 [G,B,G]2 | [A,F]3 [A,DF] [A,^CG][A,G] | %16
[M:2/4][K:bass] [D,A,]4 |[M:1/4] [G,B,]2 |[M:3/4] [G,B,][G,B,D] [G,B,D]2 [G,DG]2 | %19
 [D,D][D,D] [D,D]2 [D,A,]2 |[M:2/4][K:treble] [G,B,G]3 [G,DG] |[M:1/4][K:bass] [D,B,][D,CD] | %22
[M:6/4] .G,,6 z6 |] %23

